outputs/icons/file/cloud_off_sharp.svg

<svg xmlns="http://www.w3.org/2000/svg" width="1200" height="1200" fill="none"><g clip-path="url(#a)"><path fill="#000" d="M1200 749.995c0-132-102.5-239-232.5-248C933.5 329.493 782 199.993 600 199.993c-66.5 0-128.5 18-182.5 48.5l74.5 74.5c33.5-14.5 69.5-23 108-23 152 0 275 123 275 275.002v25h75c83 0 150 67 150 150 0 49.5-24 92.5-60.5 120l70.5 70.5c54.5-46 90-113.5 90-190.5M220.5 192.993l-70.5 70.5 138.5 138.5h-21C117 417.993 0 545.495 0 699.995c0 165.5 134.5 300 300 300h586.5l100 100 70.5-70.5zM300 899.995c-110.5 0-200-89.5-200-200s89.5-200.002 200-200.002h86.5l400 400.002z"/></g><defs><clipPath id="a"><path fill="#fff" d="M0 0h1200v1200H0z"/></clipPath></defs></svg>

<svg width="1200" height="1200" viewBox="0 0 1200 1200" fill="none" xmlns="http://www.w3.org/2000/svg"><g clip-path="url(#clip0_258_1346)"><path d="M1200 749.995C1200 617.995 1097.5 510.995 967.5 501.995C933.5 329.493 782 199.993 600 199.993C533.5 199.993 471.5 217.993 417.5 248.493L492 322.993C525.5 308.493 561.5 299.993 600 299.993C752 299.993 875 422.993 875 574.995V599.995H950C1033 599.995 1100 666.995 1100 749.995C1100 799.495 1076 842.495 1039.5 869.995L1110 940.495C1164.5 894.495 1200 826.995 1200 749.995ZM220.5 192.993L150 263.493L288.5 401.993H267.5C117 417.993 0 545.495 0 699.995C0 865.495 134.5 999.995 300 999.995H886.5L986.5 1099.995L1057 1029.495L220.5 192.993ZM300 899.995C189.5 899.995 100 810.495 100 699.995C100 589.495 189.5 499.993 300 499.993H386.5L786.5 899.995H300Z" fill="#1D1E23"/></g><defs><clipPath id="clip0_258_1346"><path width="24" fill="white" d="M0 0H1200V1200H0V0z"/></clipPath></defs></svg>
